X: 922
T: The fancy fair
C: anon.
O: Ireland
B: Francis O'Neill: "The Dance Music of Ireland" (1907) no. 922
R: Hornpipe
Z: Transcribed by Frank Nordberg - http://www.musicaviva.com
F: http://www.musicaviva.com/abc/tunes/ireland/oneill-1001/oneill-1001-092
2.abc
M: 2/4
L: 1/8
K: G
d>c|(3Bcd c>A B>GA>F|G>BA>F G2(3def|g>ba>f g>ed>B|c>BA>B c>ed>c|
B>dc>A B>GA>F|G2 (f<b) (f<b) a>g|(3fag (3fed (3egf (3edc|d>fe>^c d2::d>c|
(3Bcd g>a b>gd>B|A2(f<a) (f<a) d>c|
(3Bcd g>a b>gd>B|G2(e<g) (e<g) (3def|(3gag (3fed (3gag (3fed|(3gag (3fed
d>cB>A|(3Bcd (3gfe d>cB>A|G>BA>F G2:|
W:
W:
W: From Musica Viva - http://www.musicaviva.com
W: the Internet center for free sheet music downloads.


